!!!!SEGMENT: Ver3032-Non_po_far_morte.krn
!!!id: Ver3032
!!!AGN: Madrigal
!!!voices: 4
!!!COM: Philippe Verdelot
!!!OTL: Non pò far morte
**kern	**kern	**kern	**kern	**mxhm
*part4	*part3	*part2	*part1	*part1
*staff4	*staff3	*staff2	*staff1	*
*I"Bassus	*I"Tenor	*I"Altus	*I"Superius	*
*I'B	*I'T	*I'A	*I'S	*
*clefF4	*clefGv2	*clefG2	*clefG2	*
*k[b-]	*k[b-]	*k[b-]	*k[b-]	*
*F:	*F:	*F:	*F:	*
*M2/1	*M2/1	*M2/1	*M2/1	*
*met(C|)	*met(C|)	*met(C|)	*met(C|)	*
=1	=1	=1	=1	=1
0r	0r	1d	0r	.
.	.	2c	.	.
.	.	2B-y	.	.
=2	=2	=2	=2	=2
1D	1d	2A	0r	.
.	.	2f	.	.
2A	2c	2.e	.	.
2G	2B-y	.	.	.
.	.	4d	.	.
=3	=3	=3	=3	=3
2F	2A	2f	0r	.
2B-y	2G	2d	.	.
2.A	2.c	2e	.	.
.	.	[2f	.	.
4G	4B-y	.	.	.
=4	=4	=4	=4	=4
2F	2A	4f]	0r	.
.	.	4e	.	.
2G	2B-y	1d	.	.
1E	1G	.	.	.
.	.	2c#i	.	.
=5	=5	=5	=5	=5
1D	1A	2d	1dd	.
.	.	2d	.	.
1r	1r	2a	2cc	.
.	.	2g	2b-y	.
=6	=6	=6	=6	=6
0r	0r	2f	2a	.
.	.	2b-y	2g	.
.	.	2.a	2.cc	.
.	.	4g	4b-y	.
=7	=7	=7	=7	=7
0r	0r	2f	2a	.
.	.	2g	2b-y	.
.	.	1e	1g	.
=8	=8	=8	=8	=8
2r	2r	2d	2f	.
2D	2d	2a	2f	.
2.G	2.d	2.b-y	2.g	.
4F	4f	4a	4a	.
=9	=9	=9	=9	=9
2G	2d	2g	2b-y	.
2G	2d	2b-y	2g	.
2.F	2.f	2.a	2.cc	.
4G	4d	4g	4b-y	.
=10	=10	=10	=10	=10
2D	2d	2f	2a	.
2G	2B-y	2g	2b-y	.
1C	1c	1e	1g	.
=11	=11	=11	=11	=11
1D	1A	2d	1f	.
.	.	2d	.	.
2r	2r	2e	2r	.
2D	2A	2d	2f	.
=12	=12	=12	=12	=12
2E	2G	2c	2g	.
2D	2A	2d	2f	.
2C	2c	2e	2g	.
2D	2A	2d	2f	.
=13	=13	=13	=13	=13
2E	2G	1c	1g	.
2C	2G	.	.	.
1C	1c	2g	1e	.
.	.	2g	.	.
=14	=14	=14	=14	=14
2G	2B-y	1g	2d	.
2G	2G	.	2d	.
1G	1B-y	[1d	1g	.
=15	=15	=15	=15	=15
0D	2A	1d]	0f	.
.	2d	.	.	.
.	2d	2r	.	.
.	2A	2a	.	.
=16	=16	=16	=16	=16
2A	1c	2a	0r	.
2A	.	2e	.	.
2E	1G	1g	.	.
[2G	.	.	.	.
=17	=17	=17	=17	=17
2G]	2r	2d	2dd	.
2D	2d	2f	2dd	.
2r	2d	2f	2a	.
2F	2A	2c	[2cc	.
=18	=18	=18	=18	=18
1C	1c	1e	2cc]	.
.	.	.	1g	.
2G	2B-y	2d	.	.
2G	2d	2g	2b-y	.
=19	=19	=19	=19	=19
2.D	2.d	2.f	2.a	.
4E	4G	4g	4g	.
2D	2d	2a	2f	.
2G	2B-y	2d	2g	.
=20	=20	=20	=20	=20
1C	1c	1e	1g	.
[1D	1A	2d	1f	.
.	.	2a	.	.
=21	=21	=21	=21	=21
1D]	2r	2.a	2r	.
.	2A	.	2dd	.
.	.	4g	.	.
2r	2.B-y	2f	2.dd	.
2d	.	2f	.	.
.	4A	.	4cc	.
=22	=22	=22	=22	=22
2.d	2G	2g	2b-y	.
.	2F	2a	2a	.
4c	.	.	.	.
2B-y	2G	2r	2g	.
2A	2D	2a	2f	.
=23	=23	=23	=23	=23
2G	2.d	2.b-y	0r	.
2F	.	.	.	.
.	4c	4a	.	.
1r	2B-y	2g	.	.
.	2A	2f	.	.
=24	=24	=24	=24	=24
2r	2G	2g	2r	.
2B-y	2G	2d	2dd	.
2.B-y	2r	2.f	2.dd	.
.	2d	.	.	.
4A	.	4f	4cc	.
=25	=25	=25	=25	=25
2G	2d	2g	2b-y	.
2F	2f	2a	2a	.
2G	2d	2b-y	2g	.
2D	2d	2a	2f	.
=26	=26	=26	=26	=26
2G	2d	2b-y	2g	.
2F	2f	2a	2a	.
1G	1d	1g	1b-y	.
=27	=27	=27	=27	=27
2D	2d	1f	1a	.
2D	2d	.	.	.
2G	2d	1r	1r	.
2E	2c	.	.	.
=28	=28	=28	=28	=28
2D	2d	0r	0r	.
2G	2B-y	.	.	.
2F	2A	.	.	.
2D	2d	.	.	.
=29	=29	=29	=29	=29
2E	2c	0r	0r	.
2F	2A	.	.	.
1G	1B-y	.	.	.
=30	=30	=30	=30	=30
1D	2A	2r	2r	.
.	2B-y	2f	2dd	.
1r	2G	2g	2dd	.
.	2A	2e	2cc	.
=31	=31	=31	=31	=31
0r	2B-y	2d	2dd	.
.	2G	2g	2b-y	.
.	2d	2f	2a	.
.	2B-y	2d	2dd	.
=32	=32	=32	=32	=32
0r	2A	2e	2cc	.
.	2A	2f	2a	.
.	1G	1g	1b-y	.
=33	=33	=33	=33	=33
2r	2d	1f	1a	.
2D	2d	.	.	.
2E	2c	1r	1r	.
2F	2A	.	.	.
=34	=34	=34	=34	=34
1G	1B-y	1r	1r	.
1D	2A	2r	2r	.
.	[2B-y	[2f	[2dd	.
=35	=35	=35	=35	=35
2r	4B-]	4f]	4dd]	.
.	4A	4f	4cc	.
2.d	2B-y	2f	2dd	.
.	1G	1g	1b-y	.
4d	.	.	.	.
2d	.	.	.	.
=36	=36	=36	=36	=36
1c	1A	1e	0a	.
2d	2r	2r	.	.
[2d	[2f	[2a	.	.
=37	=37	=37	=37	=37
4d]	4f]	4a]	2r	.
4c	4e	4a	.	.
2d	2f	2a	2.dd	.
1B-y	1d	1g	.	.
.	.	.	4dd	.
.	.	.	2dd	.
=38	=38	=38	=38	=38
2A	1e	1a	1cc	.
2A	.	.	.	.
2.B-y	2r	2r	[1dd	.
.	2d	2f	.	.
4A	.	.	.	.
=39	=39	=39	=39	=39
2G	2.d	2.b-y	1dd]	.
2F	.	.	.	.
.	4c	4a	.	.
1G	2B-y	2g	2r	.
.	2B-y	2g	2dd	.
=40	=40	=40	=40	=40
1D	1A	1f	2.dd	.
.	.	.	4cc	.
2r	2G	2g	2b-y	.
2G	2g	2d	2b-y	.
=41	=41	=41	=41	=41
1D	1f#i	1d	1a	.
1G	1g	1d	1g	.
=42	=42	=42	=42	=42
0r	0r	2r	2r	.
.	.	2d	2dd	.
.	.	2a	2cc	.
.	.	2g	2b-y	.
=43	=43	=43	=43	=43
0r	0r	2f	2a	.
.	.	2b-y	2g	.
.	.	2.a	2.cc	.
.	.	4g	4b-y	.
=44	=44	=44	=44	=44
0r	0r	2f	2a	.
.	.	2g	2b-y	.
.	.	1e	1g	.
=45	=45	=45	=45	=45
2r	2r	2d	2f	.
2D	2d	2a	2f	.
2.G	2.d	2.b-y	2.g	.
4F	4f	4a	4a	B dominant
=46	=46	=46	=46	=46
2G	2d	2g	2b-y	.
2G	2d	2b-y	2g	.
2.F	2.f	2.a	2.cc	.
4G	4d	4g	4b-y	.
=47	=47	=47	=47	=47
2D	2d	2f	2a	.
2G	2B-y	2g	2b-y	.
1C	1c	1e	1g	.
=48	=48	=48	=48	=48
2D	2A	2d	2f	.
2D	2d	2a	2f	.
2.G	2.d	2.b-y	2.g	.
4F	4f	4a	4a	.
=49	=49	=49	=49	=49
2G	2d	2g	2b-y	.
2G	2d	2b-y	2g	.
2.F	2.f	2.a	2.cc	.
4G	4d	4g	4b-y	.
=50	=50	=50	=50	=50
2D	2d	2f	2a	.
2G	2B-y	2g	2b-y	.
1C	1c	1e	1g	.
=51	=51	=51	=51	=51
00Dl	00Al	00dl	00fl	.
==	==	==	==	==
*-	*-	*-	*-	*-
!!!system-decoration: [*]
!!!RDF**kern: i = editorial accidental
!!!RDF**kern: l = terminal long
!!!ENC: Benjamin Ory
!!!END: 2024/1/29
!!!EED: Benjamin Ory
!!!EEV: 2024/01/29
!!!YEC: Copyright 2024 Benjamin Ory, All Rights Reserved
!!!ONB: Translated from MusicXML on 2024/01/29
